src/assets/svg/whatsapp.svg

<?xml version="1.0" encoding="iso-8859-1"?>
<!-- Generator: Adobe Illustrator 19.0.0, SVG Export Plug-In . SVG Version: 6.00 Build 0)  -->
<svg version="1.1" id="Layer_1" xmlns="http://www.w3.org/2000/svg" xmlns:xlink="http://www.w3.org/1999/xlink" x="0px" y="0px"
	 viewBox="0 0 504.4 504.4" style="enable-background:new 0 0 504.4 504.4;" xml:space="preserve">
<g>
	<g>
		<path d="M254.8,119.4c-71.6,0-129.6,57.6-129.6,128.8c0,28,9.2,54.4,24.8,75.6l-16.4,48l50-16c20.4,13.6,45.2,21.2,71.6,21.2
			c71.6,0,130-57.6,130-128.8C384.8,177,326.4,119.4,254.8,119.4z M330.8,301.4c-3.2,8.8-18.8,17.2-25.6,18s-6.8,5.6-45.6-9.2
			c-38.4-15.2-62.8-54-64.8-56.8c-2-2.4-15.6-20.4-15.6-38.8c0-18.4,9.6-27.6,13.2-31.2c3.6-3.6,7.6-4.8,10-4.8
			c2.4,0,5.2,0.4,7.2,0.4c2.4,0,5.2-1.2,8.4,6.4c3.2,7.6,10.8,26,11.6,28s1.6,4,0.4,6.4c-1.2,2.4-2,4-3.6,6.4c-2,2-4,4.8-5.6,6.4
			c-2,2-4,4-1.6,7.6c2.4,3.6,10,16,21.2,26c14.4,12.8,26.8,16.8,30.4,18.8c3.6,2,6,1.6,8-0.8c2.4-2.4,9.6-10.8,12-14.8
			c2.4-3.6,5.2-3.2,8.4-2c3.6,1.2,22,10.4,26,12.4c3.6,2,6.4,2.8,7.2,4.4C333.6,285,333.6,292.6,330.8,301.4z"/>
	</g>
</g>
<g>
	<g>
		<path d="M377.6,0.2H126.4C56.8,0.2,0,57,0,126.6v251.6c0,69.2,56.8,126,126.4,126H378c69.6,0,126.4-56.8,126.4-126.4V126.6
			C504,57,447.2,0.2,377.6,0.2z M254.8,401.4c-27.2,0-52.4-6.8-74.8-19.2l-85.6,27.2l28-82c-14-23.2-22-50.4-22-79.2
			c0-84.8,69.2-153.2,154.4-153.2s154.4,68.4,154.4,153.2S340,401.4,254.8,401.4z"/>
	</g>
</g>
<g>
</g>
<g>
</g>
<g>
</g>
<g>
</g>
<g>
</g>
<g>
</g>
<g>
</g>
<g>
</g>
<g>
</g>
<g>
</g>
<g>
</g>
<g>
</g>
<g>
</g>
<g>
</g>
<g>
</g>
</svg>

<svg width="505" height="505" viewBox="0 0 505 505" fill="none" xmlns="http://www.w3.org/2000/svg">
<g clip-path="url(#clip0_504_86)">
<path d="M254.8 119.4C183.2 119.4 125.2 177 125.2 248.2C125.2 276.2 134.4 302.6 150 323.8L133.6 371.8L183.6 355.8C204 369.4 228.8 377 255.2 377C326.8 377 385.2 319.4 385.2 248.2C384.8 177 326.4 119.4 254.8 119.4ZM330.8 301.4C327.6 310.2 312 318.6 305.2 319.4C298.4 320.2 298.4 325 259.6 310.2C221.2 295 196.8 256.2 194.8 253.4C192.8 251 179.2 233 179.2 214.6C179.2 196.2 188.8 187 192.4 183.4C196 179.8 200 178.6 202.4 178.6C204.8 178.6 207.6 179 209.6 179C212 179 214.8 177.8 218 185.4C221.2 193 228.8 211.4 229.6 213.4C230.4 215.4 231.2 217.4 230 219.8C228.8 222.2 228 223.8 226.4 226.2C224.4 228.2 222.4 231 220.8 232.6C218.8 234.6 216.8 236.6 219.2 240.2C221.6 243.8 229.2 256.2 240.4 266.2C254.8 279 267.2 283 270.8 285C274.4 287 276.8 286.6 278.8 284.2C281.2 281.8 288.4 273.4 290.8 269.4C293.2 265.8 296 266.2 299.2 267.4C302.8 268.6 321.2 277.8 325.2 279.8C328.8 281.8 331.6 282.6 332.4 284.2C333.6 285 333.6 292.6 330.8 301.4Z" fill="#7ACAE5"/>
<path d="M377.6 0.199997H126.4C56.8 0.199997 0 57 0 126.6V378.2C0 447.4 56.8 504.2 126.4 504.2H378C447.6 504.2 504.4 447.4 504.4 377.8V126.6C504 57 447.2 0.199997 377.6 0.199997ZM254.8 401.4C227.6 401.4 202.4 394.6 180 382.2L94.4 409.4L122.4 327.4C108.4 304.2 100.4 277 100.4 248.2C100.4 163.4 169.6 95 254.8 95C340 95 409.2 163.4 409.2 248.2C409.2 333 340 401.4 254.8 401.4Z" fill="#7ACAE5"/>
</g>
<defs>
<clipPath id="clip0_504_86">
<rect width="504.4" height="504.4" fill="white"/>
</clipPath>
</defs>
</svg>
